X: 349
%
U:~=!turn!
T: Lord Moira
C:Duncan McIntyre
O:Scotland
B:Keith Norman MacDonald : "The Skye collection of the best reels & strathspeys extant" : 1887
Z:Ralph Palmer
R:Strathspey
M:C
L:1/8
K:A phrygian
C !segno!|| F<F~F>F A<c ~c2 | {/c}B>GA<F {EF}G>FE<C | F<F~F>F A<c ~c2 | d>f e/f/g/e/ f/g/a/g/ f<a :|
f<f{fg}a>f {/a}g>fe<c | d<d{/g}f>d {/d}c>BA<F | f<f {fg}a>f {/a}g>fe<c | d>f e/f/g/e/ f2 fa | {ga}b>ga>f {/a}g>fd<f |
d/c/B/A/ f>A B/A/G/F/ G<A | F<FF<F B<d ~d2 | c>f e/f/g/e/ f/g/a/g/ f<a !fine!H|| A>Fc>F d/c/B/A/ c<f | A<Fc<F G>AB<d |
A>Fc>F d/c/B/A/ c<f | d>f e/f/g/e/ f2 f<a | f<af<a e<g ~c2 | d>ef<d {/d}c>BA<F | (3fga (3fga (3efg ~c2 |
d>f e/f/g/e/ f2 fd | d<b c<a B<gA<f | {AB}c>BA<F {EF}G>FE<C | (3FGA (3GAB (3ABc (3Bcd | "_cres."c>f a/g/f/e/ g/f/e/d/ c/B/A/G/!D.C.!!segno! |]


